images/icons/logo 5.svg

<svg width="59" height="47" viewBox="0 0 59 47" fill="none" xmlns="http://www.w3.org/2000/svg">
<path d="M4.48764 39.2778C4.71752 39.5634 4.83998 39.9212 4.83356 40.2884C4.84529 40.528 4.8032 40.7671 4.71042 40.988C4.61763 41.209 4.47652 41.4062 4.29754 41.565C3.85095 41.9037 3.29769 42.0692 2.73933 42.0313H0V35.6263H2.68323C3.21289 35.5909 3.73833 35.7413 4.16977 36.0518C4.34305 36.1974 4.48026 36.3815 4.57058 36.5895C4.6609 36.7974 4.70185 37.0236 4.69021 37.2502C4.70595 37.6035 4.59543 37.9509 4.37857 38.2296C4.17037 38.4841 3.88265 38.6605 3.56206 38.7302C3.92548 38.7968 4.25352 38.9909 4.48764 39.2778ZM1.27461 38.3109H2.42146C2.6821 38.3303 2.94097 38.2548 3.1507 38.0982C3.23681 38.0198 3.3038 37.9226 3.34649 37.8141C3.38918 37.7056 3.40643 37.5887 3.39689 37.4724C3.40499 37.3565 3.38738 37.2403 3.34535 37.1321C3.30332 37.0239 3.2379 36.9264 3.15381 36.8466C2.93781 36.6856 2.6709 36.6088 2.40276 36.6307H1.27461V38.3109ZM3.26289 40.7672C3.35493 40.6869 3.42729 40.5865 3.47432 40.4736C3.52134 40.3607 3.54178 40.2385 3.53402 40.1163C3.54104 39.9928 3.51967 39.8693 3.47158 39.7554C3.42349 39.6414 3.34995 39.5401 3.25666 39.4593C3.03228 39.2922 2.75632 39.2102 2.47755 39.2277H1.27461V40.9893H2.49313C2.7674 41.0052 3.03889 40.9269 3.26289 40.7672Z" fill="#AFB1B8"/>
<path d="M9.97254 42.0313L8.47978 39.5281H7.91882V42.0313H6.63486V35.6263H9.06566C9.67838 35.5834 10.2841 35.7783 10.7579 36.1708C11.0977 36.5184 11.3026 36.9764 11.3358 37.4624C11.3689 37.9483 11.2281 38.4301 10.9386 38.821C10.6387 39.1659 10.2291 39.3959 9.77932 39.4718L11.3687 42.0313H9.97254ZM7.91882 38.6552H8.96905C9.69829 38.6552 10.0629 38.3318 10.0629 37.6852C10.0704 37.5531 10.0504 37.421 10.0042 37.2971C9.95809 37.1732 9.88681 37.0603 9.7949 36.9655C9.56445 36.7731 9.26766 36.6798 8.96905 36.7058H7.90636L7.91882 38.6552Z" fill="#AFB1B8"/>
<path d="M16.9907 40.742H14.4321L13.9803 42.0311H12.634L14.9838 35.6981H16.4391L18.7795 42.0311H17.4333L16.9907 40.742ZM16.6479 39.772L15.713 37.0686L14.7781 39.772H16.6479Z" fill="#AFB1B8"/>
<path d="M25.7759 42.0312H24.5013L21.6435 37.6757V42.0312H20.372V35.6262H21.6435L24.5013 40.0068V35.6262H25.7759V42.0312Z" fill="#AFB1B8"/>
<path d="M33.0496 40.4981C32.7861 40.9817 32.3845 41.375 31.8965 41.6276C31.3417 41.909 30.7259 42.0477 30.1046 42.0313H27.8358V35.6263H30.1046C30.7249 35.61 31.3398 35.7453 31.8965 36.0206C32.3844 36.2674 32.7864 36.6569 33.0496 37.1376C33.3119 37.6585 33.4486 38.2341 33.4486 38.8178C33.4486 39.4016 33.3119 39.9772 33.0496 40.4981ZM31.5911 40.3448C31.9549 39.9193 32.1549 39.377 32.1549 38.8163C32.1549 38.2555 31.9549 37.7133 31.5911 37.2878C31.1514 36.9024 30.578 36.7067 29.9955 36.7433H29.1104V40.8892H29.9955C30.578 40.9258 31.1514 40.7302 31.5911 40.3448Z" fill="#AFB1B8"/>
<path d="M17.7885 0C17.7885 0 34.24 6.236 33.891 15.2599V30.5229C33.891 30.5229 17.4519 24.2838 17.7947 15.2599L17.7885 0Z" fill="#AFB1B8"/>
<path d="M48.5475 26.9496C51.6545 24.8028 55.2484 23.4731 59 23.0822V18.3043C54.6773 19.977 51.0103 23.0101 48.5475 26.9496Z" fill="#AFB1B8"/>
<path d="M46.6808 28.389C49.2239 23.2478 53.6325 19.2805 59 17.3032V3.53577C59 3.53577 35.5708 12.4189 36.0663 25.2695V47C36.0663 47 37.1103 46.6027 38.7526 45.858C38.7526 45.1633 38.7526 44.4625 38.8274 43.7584C39.3123 37.7926 42.1371 32.2643 46.6808 28.389Z" fill="#AFB1B8"/>
<path d="M44.4526 36.4617C44.5756 34.9546 44.8502 33.4639 45.2722 32.0123C42.443 35.3589 40.7297 39.5117 40.3732 43.8867C40.3389 44.2997 40.3202 44.7127 40.3109 45.1383C41.6416 44.4968 43.1904 43.6958 44.8172 42.754C44.402 40.6842 44.2793 38.5659 44.4526 36.4617Z" fill="#AFB1B8"/>
<path d="M45.3844 36.54C45.2284 38.4437 45.3259 40.3599 45.6742 42.2378C52.0753 38.3923 59.268 32.4504 58.9907 25.2695V24.6437C54.4173 25.1575 50.1385 27.1648 46.8117 30.3571C46.0328 32.3355 45.5517 34.4193 45.3844 36.54Z" fill="#AFB1B8"/>
</svg>

<svg width="59" height="47" fill="none" xmlns="http://www.w3.org/2000/svg"><path d="M4.49 39.28c.23.28.35.64.34 1a1.6 1.6 0 01-.53 1.28c-.45.34-1 .5-1.56.47H0v-6.4h2.68c.53-.04 1.06.11 1.49.42a1.46 1.46 0 01.52 1.2c.02.35-.1.7-.31.98-.21.25-.5.43-.82.5.37.07.7.26.93.55zm-3.22-.97h1.15c.26.02.52-.06.73-.21a.76.76 0 00.25-.63.79.79 0 00-.25-.62 1.1 1.1 0 00-.75-.22H1.27v1.68zm2 2.46a.8.8 0 00.26-.65.81.81 0 00-.27-.66c-.23-.17-.5-.25-.78-.23h-1.2v1.76h1.21c.28.02.55-.06.77-.22zM9.97 42.03l-1.49-2.5h-.56v2.5H6.63v-6.4h2.44a2.4 2.4 0 011.69.54 2.05 2.05 0 01.18 2.65c-.3.35-.71.58-1.16.65l1.59 2.56h-1.4zm-2.05-3.37h1.05c.73 0 1.1-.33 1.1-.97a.96.96 0 00-.28-.72c-.23-.2-.52-.29-.82-.26H7.9v1.95zM17 40.74h-2.57l-.45 1.3h-1.35l2.35-6.34h1.46l2.34 6.33h-1.35L17 40.74zm-.35-.97l-.94-2.7-.93 2.7h1.87zM25.78 42.03H24.5l-2.86-4.35v4.35h-1.27v-6.4h1.27L24.5 40v-4.38h1.28v6.4zM33.05 40.5c-.26.48-.67.88-1.15 1.13-.56.28-1.17.42-1.8.4h-2.26v-6.4h2.26c.62-.02 1.24.12 1.8.4.48.24.89.63 1.15 1.1a3.74 3.74 0 010 3.37zm-1.46-.16a2.35 2.35 0 000-3.05 2.21 2.21 0 00-1.6-.55h-.88v4.15H30c.58.04 1.15-.16 1.6-.55zM17.79 0s16.45 6.24 16.1 15.26v15.26s-16.44-6.24-16.1-15.26V0zM48.55 26.95c3.1-2.15 6.7-3.48 10.45-3.87V18.3a21.47 21.47 0 00-10.45 8.65z" fill="#AFB1B8"/><path d="M46.68 28.39A22.38 22.38 0 0159 17.3V3.54s-23.43 8.88-22.93 21.73V47s1.04-.4 2.68-1.14c0-.7 0-1.4.08-2.1a22.6 22.6 0 017.85-15.37z" fill="#AFB1B8"/><path d="M44.45 36.46c.13-1.5.4-3 .82-4.45a21.04 21.04 0 00-4.96 13.13 68.03 68.03 0 004.5-2.39 22.57 22.57 0 01-.36-6.29zM45.38 36.54c-.15 1.9-.05 3.82.3 5.7 6.4-3.85 13.59-9.79 13.31-16.97v-.63a20.97 20.97 0 00-12.18 5.72 21.5 21.5 0 00-1.43 6.18z" fill="#AFB1B8"/></svg>
